X:1
T: Hawk's Hornpipe
C:
R:Reel
Q: 232
K:Em
M:4/4
L:1/8
|:ed|c2 EF G2 EF|GF GA GA cd|eg ec Ad cA|GF EF G2 FG|
AG AB cB cA|cd ce g2 fg|((3agf) ge fd ec|1A2 ((3AAA) AG AB:|2A2 ((3AAA) Ac ef|
gf ga gf ed|cd ef gf ed|ea ab c'b ag|e2 a2 a2 ef|
((3gfe) af ((3gfe) dB|cd ef g2 fg|((3agf) ge fd ec|1A2 ((3AAA) Ac ef:|2A2 ((3AAA) A2||
